src/assets/tokens/LODE.svg

<svg width="32" height="32" viewBox="0 0 32 32" fill="none" xmlns="http://www.w3.org/2000/svg">
<g clip-path="url(#clip0_224_1195)">
<circle cx="16" cy="16" r="16" fill="#121825"/>
<path d="M15.9992 4.17626C16.3941 5.6799 16.9905 7.10424 17.7645 8.40486C18.058 8.17487 18.3451 7.95757 18.6226 7.75455C17.295 5.47212 16.5321 2.82171 16.5321 0H15.4662C15.4662 2.82171 14.7033 5.47212 13.3757 7.75455C13.6533 7.95757 13.9404 8.17646 14.2338 8.40486C15.0079 7.10424 15.6042 5.6799 15.9992 4.17626Z" fill="#E5D540"/>
<path d="M24.2455 13.3758C23.9314 13.1997 23.6269 13.0078 23.3335 12.8048C23.0131 12.5906 22.7101 12.3622 22.4103 12.1227C22.128 11.9039 21.8552 11.6755 21.5887 11.4296C21.2366 11.1045 20.8956 10.7634 20.5704 10.4113C20.2929 10.608 20.0058 10.8269 19.7171 11.0569C20.1009 11.4883 20.5117 11.8991 20.9432 12.2782C21.2049 12.5177 21.4761 12.7524 21.7584 12.9713C22.0566 13.2108 22.3659 13.436 22.6816 13.6533C22.9798 13.8564 23.2843 14.0483 23.5936 14.2339C24.9005 15.0079 26.3185 15.6043 27.8222 15.9992C26.3185 16.3942 24.899 16.9905 23.5936 17.7646C23.2843 17.9517 22.9798 18.1437 22.6816 18.3451C22.3675 18.564 22.0582 18.7876 21.7584 19.0271C21.4761 19.246 21.2033 19.4808 20.9432 19.7203C20.5117 20.0993 20.1009 20.5102 19.7171 20.9416C20.0058 21.1716 20.2929 21.3889 20.5704 21.5871C20.8956 21.235 21.2366 20.894 21.5887 20.5688C21.8552 20.323 22.128 20.0946 22.4103 19.8757C22.7085 19.6362 23.0131 19.4062 23.3335 19.1937C23.6269 18.9906 23.9314 18.7987 24.2455 18.6227C26.5279 17.2951 29.1736 16.5322 32 16.5322V15.4663C29.1736 15.4663 26.5279 14.7034 24.2455 13.3758Z" fill="#E5D540"/>
<path d="M8.66657 19.1937C8.98696 19.4078 9.28991 19.6362 9.58969 19.8757C9.87202 20.0946 10.1448 20.323 10.4113 20.5688C10.7634 20.894 11.1044 21.235 11.4296 21.5871C11.7072 21.3904 11.9942 21.1716 12.2829 20.9416C11.8991 20.5102 11.4883 20.0993 11.0569 19.7203C10.7951 19.4808 10.5239 19.246 10.2416 19.0271C9.94339 18.7876 9.6341 18.5624 9.31846 18.3451C9.02027 18.1421 8.71574 17.9502 8.40644 17.7646C7.09948 16.9905 5.68149 16.3942 4.17784 15.9992C5.68149 15.6043 7.10107 15.0079 8.40644 14.2339C8.71574 14.0467 9.02027 13.8548 9.31846 13.6533C9.63251 13.4345 9.94181 13.2108 10.2416 12.9713C10.5239 12.7524 10.7967 12.5177 11.0569 12.2782C11.4883 11.8991 11.8991 11.4883 12.2829 11.0569C11.9942 10.8269 11.7072 10.6096 11.4296 10.4113C11.1044 10.7634 10.7634 11.1045 10.4113 11.4296C10.1448 11.6755 9.87202 11.9039 9.58969 12.1227C9.2915 12.3622 8.98696 12.5922 8.66657 12.8048C8.37313 13.0078 8.0686 13.1997 7.75455 13.3758C5.47212 14.7034 2.82647 15.4663 0 15.4663V16.5322C2.82647 16.5322 5.47212 17.2951 7.75455 18.6227C8.0686 18.7987 8.37313 18.9906 8.66657 19.1937Z" fill="#E5D540"/>
<path d="M15.9992 27.8238C15.6042 26.3201 15.0079 24.8958 14.2338 23.5952C13.9404 23.8251 13.6533 24.0424 13.3757 24.2455C14.7033 26.5279 15.4662 29.1783 15.4662 32H16.5321C16.5321 29.1783 17.295 26.5279 18.6226 24.2455C18.3451 24.0424 18.058 23.8236 17.7645 23.5952C16.9905 24.8958 16.3941 26.3201 15.9992 27.8238Z" fill="#E5D540"/>
<path d="M23.9457 20.0692C23.6316 20.2817 23.3223 20.5117 23.0225 20.7576C24.3454 22.7466 24.9529 24.3248 25.2193 25.2209C24.3232 24.9544 22.745 24.347 20.756 23.0241C20.4736 22.8322 20.1802 22.6292 19.8757 22.4103C19.5981 22.2073 19.3205 21.9947 19.0271 21.76C18.7606 21.5459 18.4831 21.3175 18.2007 21.078C18.0041 20.9067 17.801 20.7258 17.5932 20.5387H17.5885C17.3331 20.3039 17.0762 20.0644 16.8145 19.8075L19.4649 17.1571L19.8059 16.8161C20.0613 17.0778 20.3071 17.3395 20.5371 17.5901H20.5418C20.7227 17.7979 20.9051 18.0009 21.0748 18.2039C21.373 17.9644 21.6823 17.7344 21.9979 17.5219C21.7949 17.2824 21.5823 17.0365 21.3476 16.7859C21.1176 16.5353 20.8781 16.2625 20.6227 16.0024C20.8781 15.7407 21.1192 15.4694 21.3476 15.2188C21.5823 14.9682 21.7949 14.7224 21.9979 14.4829C21.6839 14.2687 21.3746 14.0403 21.0748 13.8008C20.9035 14.0039 20.7227 14.2069 20.5418 14.4147H20.5371C20.3071 14.6653 20.0628 14.927 19.8059 15.1887L19.4649 14.8477L16.8145 12.1973C17.0762 11.9419 17.3315 11.7008 17.5885 11.4661H17.5932C17.801 11.2789 18.0041 11.0981 18.2007 10.9268C18.4831 10.6873 18.7606 10.4573 19.0271 10.2448C19.3205 10.01 19.5981 9.79747 19.8757 9.59444C20.1802 9.37556 20.4736 9.17253 20.756 8.98061C22.745 7.65779 24.3232 7.0503 25.2193 6.78384C24.9529 7.68 24.3454 9.25819 23.0225 11.2472C23.3207 11.493 23.63 11.7214 23.9457 11.9356C26.244 8.51747 26.5374 6.21283 26.5532 6.08436L26.6389 5.36426L25.9188 5.44991C25.7903 5.46577 23.4873 5.7592 20.0676 8.05749C19.7853 8.24465 19.4918 8.44609 19.1936 8.67132C18.9161 8.87434 18.6337 9.08688 18.3451 9.32163C18.0738 9.53417 17.7963 9.76416 17.5124 10.01C17.2729 10.2067 17.027 10.4256 16.7812 10.6556H16.7764C16.521 10.8855 16.2641 11.1298 16.0024 11.3868L15.9976 11.382L15.9929 11.3868C15.7311 11.1314 15.4758 10.8855 15.2188 10.6556H15.2141C14.9682 10.4256 14.724 10.2083 14.4829 10.01C14.2005 9.76416 13.923 9.53576 13.6502 9.32163C13.3615 9.08688 13.0791 8.87434 12.8016 8.67132C12.5034 8.44768 12.21 8.24465 11.9276 8.05749C8.50953 5.7592 6.2049 5.46577 6.07642 5.44991L5.35632 5.36426L5.44197 6.08436C5.45784 6.21283 5.75127 8.51588 8.04956 11.9356C8.36361 11.723 8.6729 11.493 8.97268 11.2472C7.64985 9.25819 7.04237 7.68 6.7759 6.78384C7.67206 7.0503 9.25025 7.65779 11.2392 8.98061C11.5216 9.17253 11.815 9.37556 12.1195 9.59444C12.3971 9.79747 12.6747 10.01 12.9681 10.2448C13.2346 10.4589 13.5122 10.6873 13.7945 10.9268C13.9912 11.0981 14.1942 11.2789 14.402 11.4661H14.4067C14.6621 11.7008 14.919 11.9403 15.1808 12.1973L12.5303 14.8477L12.1893 15.1887C11.934 14.927 11.6881 14.6653 11.4581 14.4147H11.4534C11.2726 14.2069 11.0902 14.0039 10.9204 13.8008C10.6222 14.0403 10.313 14.2703 9.99731 14.4829C10.2003 14.7224 10.4129 14.9682 10.6476 15.2188C10.8776 15.4694 11.1171 15.7422 11.3725 16.0024C11.1171 16.2641 10.876 16.5353 10.6476 16.7859C10.4129 17.0365 10.2003 17.2824 9.99731 17.5219C10.3114 17.736 10.6207 17.9644 10.9204 18.2039C11.0917 18.0009 11.2726 17.7979 11.4534 17.5901H11.4581C11.6881 17.3395 11.9324 17.0778 12.1893 16.8161L12.5303 17.1571L15.1808 19.8075C14.919 20.0628 14.6637 20.3039 14.4067 20.5387H14.402C14.1942 20.7258 13.9912 20.9067 13.7945 21.078C13.5122 21.3175 13.2346 21.5475 12.9681 21.76C12.6747 21.9947 12.3971 22.2073 12.1195 22.4103C11.815 22.6292 11.5216 22.8322 11.2392 23.0241C9.25025 24.347 7.67206 24.9544 6.7759 25.2209C7.04237 24.3248 7.64985 22.7466 8.97268 20.7576C8.67449 20.5117 8.3652 20.2833 8.04956 20.0692C5.75127 23.4873 5.45784 25.7919 5.44197 25.9204L5.35632 26.6405L6.07642 26.5548C6.2049 26.539 8.50795 26.2455 11.9276 23.9473C12.21 23.7601 12.5034 23.5587 12.8016 23.3334C13.0791 23.1304 13.3615 22.9179 13.6502 22.6831C13.9214 22.4706 14.1989 22.2406 14.4829 21.9947C14.7224 21.7981 14.9682 21.5792 15.2141 21.3492H15.2188C15.4742 21.1192 15.7311 20.8749 15.9929 20.618L15.9976 20.6227L16.0024 20.618C16.2641 20.8734 16.5194 21.1192 16.7764 21.3492H16.7812C17.027 21.5792 17.2713 21.7965 17.5124 21.9947C17.7947 22.2406 18.0723 22.469 18.3451 22.6831C18.6337 22.9179 18.9161 23.1304 19.1936 23.3334C19.4918 23.5571 19.7853 23.7601 20.0676 23.9473C23.4857 26.2455 25.7903 26.539 25.9188 26.5548L26.6389 26.6405L26.5532 25.9204C26.5374 25.7919 26.244 23.4889 23.9457 20.0692ZM16.3466 18.656L15.9992 19.0033L15.6518 18.656L13.3424 16.3466L12.9951 15.9992L13.3424 15.6518L15.6518 13.3424L15.9992 12.9951L16.3466 13.3424L18.656 15.6518L19.0033 15.9992L18.656 16.3466L16.3466 18.656Z" fill="#E5D540"/>
</g>
<defs>
<clipPath id="clip0_224_1195">
<rect width="32" height="32" fill="white"/>
</clipPath>
</defs>
</svg>

<svg width="32" height="32" fill="none" xmlns="http://www.w3.org/2000/svg"><g clip-path="url(#clip0_224_1195)"><circle cx="16" cy="16" r="16" fill="#121825"/><path d="M16 4.176a16.43 16.43 0 0 0 1.765 4.229c.293-.23.58-.447.858-.65A15.38 15.38 0 0 1 16.533 0h-1.067a15.38 15.38 0 0 1-2.09 7.755c.277.203.564.421.858.65a16.43 16.43 0 0 0 1.765-4.229zm8.245 9.2a11.43 11.43 0 0 1-.912-.571c-.32-.214-.623-.443-.923-.682a12.469 12.469 0 0 1-.821-.693 18.145 18.145 0 0 1-1.019-1.019c-.277.197-.564.416-.853.646.384.431.795.842 1.226 1.221.262.24.533.474.815.693.299.24.608.465.924.682A16.522 16.522 0 0 0 27.822 16a16.5 16.5 0 0 0-6.064 3.028c-.282.219-.555.454-.815.693-.431.38-.842.79-1.226 1.222.289.23.576.447.853.645.326-.352.667-.693 1.019-1.018.266-.246.539-.474.821-.693.299-.24.603-.47.924-.682.293-.203.597-.395.912-.571A15.368 15.368 0 0 1 32 16.533v-1.067c-2.826 0-5.472-.763-7.755-2.09zM8.668 19.194c.32.214.623.442.923.682.282.219.555.447.821.693.352.325.693.666 1.019 1.018.277-.197.564-.415.853-.645a14.129 14.129 0 0 0-1.226-1.222c-.262-.24-.533-.474-.815-.693a15.57 15.57 0 0 0-1.836-1.262 16.524 16.524 0 0 0-4.228-1.766 16.5 16.5 0 0 0 6.064-3.028c.282-.219.555-.453.815-.693.431-.379.842-.79 1.226-1.221-.289-.23-.576-.447-.853-.646-.326.352-.667.694-1.019 1.019-.266.245-.539.474-.821.693-.299.24-.603.47-.923.682-.294.203-.598.395-.912.57A15.368 15.368 0 0 1 0 15.467v1.066c2.826 0 5.472.763 7.755 2.09.314.177.618.369.912.572zm7.332 8.63a16.43 16.43 0 0 0-1.765-4.229c-.294.23-.58.447-.858.65A15.38 15.38 0 0 1 15.466 32h1.066c0-2.822.763-5.472 2.09-7.755a36.789 36.789 0 0 1-.857-.65 16.43 16.43 0 0 0-1.766 4.229z" fill="#E5D540"/><path d="M23.946 20.07a12.52 12.52 0 0 0-.924.688c1.323 1.989 1.93 3.567 2.197 4.463-.896-.267-2.474-.874-4.463-2.197a40.357 40.357 0 0 1-.88-.614 24.49 24.49 0 0 1-.849-.65 40.397 40.397 0 0 1-.826-.682c-.197-.171-.4-.352-.608-.54h-.005a32.19 32.19 0 0 1-.774-.73l2.65-2.65.342-.342c.255.262.501.524.731.774h.005c.18.208.363.41.533.614.298-.24.607-.47.923-.682-.203-.24-.416-.485-.65-.736-.23-.25-.47-.524-.725-.784.255-.261.496-.533.725-.783.234-.25.447-.497.65-.736a15.26 15.26 0 0 1-.923-.682c-.171.203-.352.406-.533.614h-.005c-.23.25-.474.512-.731.774l-.341-.341-2.65-2.65c.261-.256.516-.497.773-.732h.005c.208-.187.411-.368.608-.54.282-.239.56-.469.826-.681.293-.235.571-.448.849-.65.304-.22.598-.422.88-.614 1.989-1.323 3.567-1.93 4.463-2.197-.266.896-.874 2.474-2.197 4.463.299.246.608.474.924.689 2.298-3.419 2.591-5.723 2.607-5.852l.086-.72-.72.086c-.129.016-2.432.31-5.851 2.607-.283.188-.576.39-.874.614-.278.203-.56.416-.849.65-.271.213-.549.443-.833.689-.24.197-.485.416-.73.646h-.006c-.255.23-.512.474-.774.73l-.004-.004-.005.005a24.796 24.796 0 0 0-.774-.731h-.005c-.246-.23-.49-.448-.731-.646a21.23 21.23 0 0 0-.833-.688 20.733 20.733 0 0 0-.848-.65 18.298 18.298 0 0 0-.874-.615C8.51 5.76 6.205 5.466 6.076 5.45l-.72-.086.086.72c.016.129.31 2.432 2.608 5.852.314-.213.623-.443.923-.689C7.65 9.258 7.043 7.68 6.776 6.784c.896.266 2.474.874 4.463 2.197.283.192.576.395.88.613.278.203.556.416.85.65.266.215.543.443.825.683.197.171.4.352.608.54h.005c.255.234.512.473.774.73l-2.65 2.65-.342.342a35.085 35.085 0 0 1-.73-.774h-.006c-.18-.208-.363-.411-.533-.614-.298.24-.607.47-.923.682.203.24.416.485.65.736.23.25.47.523.726.783-.256.262-.497.533-.725.784-.235.25-.448.496-.65.736.313.214.623.442.922.682.172-.203.353-.406.533-.614h.005c.23-.25.474-.512.731-.774l.341.341 2.65 2.65c-.261.256-.516.497-.773.732h-.005c-.208.187-.41.368-.607.539-.283.24-.56.47-.827.682a24.49 24.49 0 0 1-.848.65c-.305.22-.598.422-.88.614-1.99 1.323-3.568 1.93-4.464 2.197.266-.896.874-2.474 2.197-4.463a12.31 12.31 0 0 0-.923-.689c-2.299 3.418-2.592 5.723-2.608 5.851l-.086.72.72-.085c.129-.016 2.432-.31 5.852-2.608.282-.187.575-.388.874-.614.277-.203.56-.415.848-.65.271-.212.549-.442.833-.688.24-.197.485-.416.731-.646h.005c.255-.23.512-.474.774-.731l.005.005.004-.005c.262.255.517.501.774.731h.005c.246.23.49.448.731.646.283.246.56.474.833.688.289.235.571.447.849.65.298.224.591.427.874.614 3.418 2.299 5.722 2.592 5.85 2.608l.72.085-.085-.72c-.016-.128-.309-2.431-2.607-5.85zm-7.6-1.414l-.347.347-.347-.347-2.31-2.31-.347-.347.347-.347 2.31-2.31.347-.347.348.347 2.309 2.31.347.347-.347.348-2.31 2.309z" fill="#E5D540"/></g><defs><clipPath id="clip0_224_1195"><path fill="#fff" d="M0 0H32V32H0z"/></clipPath></defs></svg>
